X: 16
T:Nurmisen's Polka
M:2/4
L:1/16
Q:130
C:Trad.
S:Folkmusic from South-Karelia
K:CMajor
|:G2E2 >c3d| c2B2 B4|d^cde (3 f-g-f d2|cBcd e2c2|G2E2 >c3d|c2B2 B4|\
d^cde (3 f-g-f d2|c2e2c2 z2:|:(3g-a-ge2 (3e-f-e c2|(3e-f-ed2 dcBA|\
G2B2 d2f2|a2g2 gfef|(3g-a-ge2 (3e-f-e c2|(3e-f-ed2 dcBA|G2B2 d2de|\
d2c2c2z2:|:C2E2 GGGG|F2A2 AAAA| G2B2 dddd|c2e2 eeee| C2E2 GG GG|\
F2A2 AAAA|G2B2 ddde| d2c2 c4:|
